blockchains/ethereum/assets/0x53066cdDBc0099eb6c96785d9b3DF2AAeEDE5DA3/logo.svg

<svg fill="none" height="250" viewBox="0 0 250 250" width="250" xmlns="http://www.w3.org/2000/svg"><path d="m247.4 124.801c0 33.9-13.8 64.6-36.05 86.8-22.15 22.05-52.7 35.7-86.45 35.7-33.7499 0-64.2999-13.65-86.4499-35.7-22.3-22.2-36.1-52.9-36.1-86.8 0-67.6502 54.85-122.50018 122.4999-122.50018 67.7-.05 122.55 54.79998 122.55 122.50018z" fill="#ff6766"/><path d="m247.4 124.8c0 67.65-54.85 122.5-122.5 122.5-33.8001 0-64.3501-13.65-86.5001-35.75l173.2001-173.3c22.1 22.15 35.8 52.75 35.8 86.55z" fill="#d95e59"/><path d="m211.35 211.598c-22.15 22.05-52.7 35.7-86.45 35.7-33.7501 0-64.3-13.65-86.45-35.7 22.15-22.05 52.6999-35.7 86.45-35.7 33.75 0 64.25 13.6 86.45 35.7z" fill="#fef4c8"/><path d="m125 75.1531c8.477 0 15.35-6.8724 15.35-15.35 0-8.4775-6.873-15.35-15.35-15.35-8.478 0-15.35 6.8725-15.35 15.35 0 8.4776 6.872 15.35 15.35 15.35z" fill="#016273"/><path d="m125 44.5016c8.45 0 15.35 6.85 15.35 15.35s-6.85 15.35-15.35 15.35-15.35-6.85-15.35-15.35 6.85-15.35 15.35-15.35zm0-15.4c-16.95 0-30.75 13.8-30.75 30.75s13.8 30.75 30.75 30.75 30.75-13.8 30.75-30.75-13.8-30.75-30.75-30.75z" fill="#fff"/></svg>

<svg width="250" height="250" viewBox="0 0 250 250" fill="none" xmlns="http://www.w3.org/2000/svg">
<path d="M247.4 124.801C247.4 158.701 233.6 189.401 211.35 211.601C189.2 233.651 158.65 247.301 124.9 247.301C91.1501 247.301 60.6001 233.651 38.4501 211.601C16.1501 189.401 2.3501 158.701 2.3501 124.801C2.3501 57.1508 57.2001 2.30082 124.85 2.30082C192.55 2.25082 247.4 57.1008 247.4 124.801Z" fill="#FF6766"/>
<path d="M247.4 124.8C247.4 192.45 192.55 247.3 124.9 247.3C91.0999 247.3 60.5499 233.65 38.3999 211.55L211.6 38.25C233.7 60.4 247.4 91 247.4 124.8Z" fill="#D95E59"/>
<path d="M211.35 211.598C189.2 233.648 158.65 247.298 124.9 247.298C91.1499 247.298 60.6 233.648 38.45 211.598C60.6 189.548 91.1499 175.898 124.9 175.898C158.65 175.898 189.15 189.498 211.35 211.598Z" fill="#FEF4C8"/>
<path d="M125 75.1531C133.477 75.1531 140.35 68.2807 140.35 59.8031C140.35 51.3256 133.477 44.4531 125 44.4531C116.522 44.4531 109.65 51.3256 109.65 59.8031C109.65 68.2807 116.522 75.1531 125 75.1531Z" fill="#016273"/>
<path d="M125 44.5016C133.45 44.5016 140.35 51.3516 140.35 59.8516C140.35 68.3516 133.5 75.2016 125 75.2016C116.5 75.2016 109.65 68.3516 109.65 59.8516C109.65 51.3516 116.5 44.5016 125 44.5016ZM125 29.1016C108.05 29.1016 94.25 42.9016 94.25 59.8516C94.25 76.8016 108.05 90.6016 125 90.6016C141.95 90.6016 155.75 76.8016 155.75 59.8516C155.75 42.9016 141.95 29.1016 125 29.1016Z" fill="white"/>
</svg>
